!!!OTL: HANS IM SCHNOCKELOCH
!!!ARE: Europa, Mitteleuropa, Deutschland; France, Elsass
!!!SCT: E1723
!!!YEM: Copyright 1995, estate of Helmut Schaffrath.
**kern
*ICvox
*Ivox
*M2/4
*k[b-]
*F:
=1
{4cc
8cc
8dd
=2
8.cc
16b-
8a}
{8a
=3
8b-
8b-
8g
8g
=4
4a
4r}
=5
{8.g
16a
8b-
8g
=6
8.a
16b-
8cc}
{8a
=7
8.g
16a
8b-
8g
=8
8.a
16b-
8cc
8r}
=9
{4cc
8cc
8dd
=10
8.cc
16b-
8a}
{8a
=11
8b-
8b-
8g
8g
=12
4f
4r}
==
!!!AGN: Scherz - Lied
!!!ONB: ESAC (Essen Associative Code) Database: ERK3
!!!AMT: simple duple
!!!AIN: vox
!!!EED: Helmut Schaffrath
!!!EEV: 1.0
*-
